file/abc.svg

<svg clip-rule="evenodd" fill-rule="evenodd" stroke-linejoin="round" stroke-miterlimit="1.41421" viewBox="0 0 560 400" xmlns="http://www.w3.org/2000/svg"><g fill-rule="nonzero" transform="matrix(.34642 0 0 .34642 100 155.883)"><path d="m49 .2c12.8-.2 28.5 4.6 39 17.7 4.8 4.6 13.6 26.8 13.6 26.8l52.6 139.6c6.8 16.8 27.1 18 33.1 1.3l16.3-44 27.9 73.4c-13.6 24.7-26.7 30.8-42.2 36.5-18.1 5.7-39.8 3.8-55.4-5.9-5.2-3.3-18.7-12.1-27.9-34.4l-55.4-154.8v140.9l20.7-59.5 26.6 74.3c-3.9 17.1-16.2 31.3-30.6 38-15.7 7.4-34.4 4.8-48.6-4.2-14.1-10.4-18.1-22.8-18.7-44.8l.2-152.4c1.6-25.4 17.8-39.2 32.1-45.4 6.5-2.3 9.2-2.9 16.7-3.1zm242.2 254.1c-12.9.2-28.5-4.6-39-17.6-4.8-4.6-13.5-26.8-13.5-26.8l-52.7-139.6c-6.8-16.8-27.1-18-33.1-1.3l-16.3 44-27.9-73.4c13.6-24.7 26.7-30.8 42.3-36.4 18.1-5.7 39.8-3.8 55.4 5.9 5.2 3.4 18.7 12.2 27.9 34.4l55.4 154.7v-140.9l-20.7 59.5-26.6-74.3c3.9-17.1 16.2-31.3 30.6-38 15.7-7.4 34.4-4.8 48.6 4.2 14.1 10.5 18.1 22.9 18.7 44.8l-.3 152.4c-1.6 25.4-17.8 39.2-32.1 45.4-6.5 2.3-9.3 2.9-16.7 3z"/><path d="m990.4 95.2c-3.9-21.8-23.2-43.5-51.9-43.5-31.9 0-57.6 22.1-57.6 74.4 0 40.7 17.9 76.2 56.9 76.2 24.6 0 44.2-15.1 51.2-39.7l49.5 21.8c-13.7 37.9-53.4 70.9-108.8 68.1-68.1-3.2-106.4-51.2-106.4-124.6 0-84.6 50.5-122.8 109.2-125 57.6-2.1 95.5 30.9 106.7 69.1-.7.3-48.1 22.5-48.8 23.2zm-380.1 155.1h-60.4l-17.2-53.3h-77.6l-17.2 53.4h-60l81.8-245.8h68.1zm111.5.1h-99v-245.8h100.8c51.9 0 80.7 18.6 80.7 61.8 0 24.9-10.5 45.3-29.8 54.1 22.1 7.4 36.5 26 36.5 56.9 0 46.7-31.2 73-89.2 73zm-.3-102.6h-40.7v52.7h41.4c19 0 30.5-8.4 30.9-26 .7-18.6-12.3-26.7-31.6-26.7zm-226-65.3h-3.5l-21.4 64.6h46.3zm226.7-30.2h-41.4v45.3h40.4c16.1 0 25.6-8.1 25.6-23.9 0-14.7-8.8-21.4-24.6-21.4z"/></g></svg>

<?xml version="1.0" encoding="UTF-8" standalone="no"?>
<!DOCTYPE svg PUBLIC "-//W3C//DTD SVG 1.1//EN" "http://www.w3.org/Graphics/SVG/1.1/DTD/svg11.dtd">
<svg width="100%" height="100%" viewBox="0 0 560 400" version="1.1" xmlns="http://www.w3.org/2000/svg" xmlns:xlink="http://www.w3.org/1999/xlink" xml:space="preserve" xmlns:serif="http://www.serif.com/" style="fill-rule:evenodd;clip-rule:evenodd;stroke-linejoin:round;stroke-miterlimit:1.41421;">
    <g transform="matrix(0.34642,0,0,0.34642,100,155.883)">
        <path id="path6569" d="M49,0.2C61.8,0 77.5,4.8 88,17.9C92.8,22.5 101.6,44.7 101.6,44.7L154.2,184.3C161,201.1 181.3,202.3 187.3,185.6L203.6,141.6L231.5,215C217.9,239.7 204.8,245.8 189.3,251.5C171.2,257.2 149.5,255.3 133.9,245.6C128.7,242.3 115.2,233.5 106,211.2L50.6,56.4L50.6,197.3L71.3,137.8L97.9,212.1C94,229.2 81.7,243.4 67.3,250.1C51.6,257.5 32.9,254.9 18.7,245.9C4.6,235.5 0.6,223.1 0,201.1L0.2,48.7C1.8,23.3 18,9.5 32.3,3.3C38.8,1 41.5,0.4 49,0.2ZM291.2,254.3C278.3,254.5 262.7,249.7 252.2,236.7C247.4,232.1 238.7,209.9 238.7,209.9L186,70.3C179.2,53.5 158.9,52.3 152.9,69L136.6,113L108.7,39.6C122.3,14.9 135.4,8.8 151,3.2C169.1,-2.5 190.8,-0.6 206.4,9.1C211.6,12.5 225.1,21.3 234.3,43.5L289.7,198.2L289.7,57.3L269,116.8L242.4,42.5C246.3,25.4 258.6,11.2 273,4.5C288.7,-2.9 307.4,-0.3 321.6,8.7C335.7,19.2 339.7,31.6 340.3,53.5L340,205.9C338.4,231.3 322.2,245.1 307.9,251.3C301.4,253.6 298.6,254.2 291.2,254.3Z" style="fill-rule:nonzero;"/>
        <g>
            <path d="M990.4,95.2C986.5,73.4 967.2,51.7 938.5,51.7C906.6,51.7 880.9,73.8 880.9,126.1C880.9,166.8 898.8,202.3 937.8,202.3C962.4,202.3 982,187.2 989,162.6L1038.5,184.4C1024.8,222.3 985.1,255.3 929.7,252.5C861.6,249.3 823.3,201.3 823.3,127.9C823.3,43.3 873.8,5.1 932.5,2.9C990.1,0.8 1028,33.8 1039.2,72C1038.5,72.3 991.1,94.5 990.4,95.2ZM610.3,250.3L549.9,250.3L532.7,197L455.1,197L437.9,250.4L377.9,250.4L459.7,4.6L527.8,4.6L610.3,250.3ZM721.8,250.4L622.8,250.4L622.8,4.6L723.6,4.6C775.5,4.6 804.3,23.2 804.3,66.4C804.3,91.3 793.8,111.7 774.5,120.5C796.6,127.9 811,146.5 811,177.4C811,224.1 779.8,250.4 721.8,250.4ZM721.5,147.8L680.8,147.8L680.8,200.5L722.2,200.5C741.2,200.5 752.7,192.1 753.1,174.5C753.8,155.9 740.8,147.8 721.5,147.8ZM495.5,82.5L492,82.5L470.6,147.1L516.9,147.1L495.5,82.5ZM722.2,52.3L680.8,52.3L680.8,97.6L721.2,97.6C737.3,97.6 746.8,89.5 746.8,73.7C746.8,59 738,52.3 722.2,52.3Z" style="fill-rule:nonzero;"/>
        </g>
    </g>
</svg>
